docs/badges/logo.svg

<svg width="1024" xmlns="http://www.w3.org/2000/svg" height="1024" id="screenshot-25ef02d5-d97e-8012-8006-7e9418d32f54" viewBox="0 0 1024 1024" xmlns:xlink="http://www.w3.org/1999/xlink" fill="none" version="1.1"><style>/* cyrillic-ext */
@font-face {
  font-family: 'Inter';
  font-style: normal;
  font-weight: 700;
  font-display: block;
  src: url(https://design.penpot.app/internal/gfonts/font/inter/v19/UcCO3FwrK3iLTeHuS_nVMrMxCp50SjIw2boKoduKmMEVuFuYAZJhiI2B.woff2) format('woff2');
  unicode-range: U+0460-052F, U+1C80-1C8A, U+20B4, U+2DE0-2DFF, U+A640-A69F, U+FE2E-FE2F;
}
/* cyrillic */
@font-face {
  font-family: 'Inter';
  font-style: normal;
  font-weight: 700;
  font-display: block;
  src: url(https://design.penpot.app/internal/gfonts/font/inter/v19/UcCO3FwrK3iLTeHuS_nVMrMxCp50SjIw2boKoduKmMEVuFuYAZthiI2B.woff2) format('woff2');
  unicode-range: U+0301, U+0400-045F, U+0490-0491, U+04B0-04B1, U+2116;
}
/* greek-ext */
@font-face {
  font-family: 'Inter';
  font-style: normal;
  font-weight: 700;
  font-display: block;
  src: url(https://design.penpot.app/internal/gfonts/font/inter/v19/UcCO3FwrK3iLTeHuS_nVMrMxCp50SjIw2boKoduKmMEVuFuYAZNhiI2B.woff2) format('woff2');
  unicode-range: U+1F00-1FFF;
}
/* greek */
@font-face {
  font-family: 'Inter';
  font-style: normal;
  font-weight: 700;
  font-display: block;
  src: url(https://design.penpot.app/internal/gfonts/font/inter/v19/UcCO3FwrK3iLTeHuS_nVMrMxCp50SjIw2boKoduKmMEVuFuYAZxhiI2B.woff2) format('woff2');
  unicode-range: U+0370-0377, U+037A-037F, U+0384-038A, U+038C, U+038E-03A1, U+03A3-03FF;
}
/* vietnamese */
@font-face {
  font-family: 'Inter';
  font-style: normal;
  font-weight: 700;
  font-display: block;
  src: url(https://design.penpot.app/internal/gfonts/font/inter/v19/UcCO3FwrK3iLTeHuS_nVMrMxCp50SjIw2boKoduKmMEVuFuYAZBhiI2B.woff2) format('woff2');
  unicode-range: U+0102-0103, U+0110-0111, U+0128-0129, U+0168-0169, U+01A0-01A1, U+01AF-01B0, U+0300-0301, U+0303-0304, U+0308-0309, U+0323, U+0329, U+1EA0-1EF9, U+20AB;
}
/* latin-ext */
@font-face {
  font-family: 'Inter';
  font-style: normal;
  font-weight: 700;
  font-display: block;
  src: url(https://design.penpot.app/internal/gfonts/font/inter/v19/UcCO3FwrK3iLTeHuS_nVMrMxCp50SjIw2boKoduKmMEVuFuYAZFhiI2B.woff2) format('woff2');
  unicode-range: U+0100-02BA, U+02BD-02C5, U+02C7-02CC, U+02CE-02D7, U+02DD-02FF, U+0304, U+0308, U+0329, U+1D00-1DBF, U+1E00-1E9F, U+1EF2-1EFF, U+2020, U+20A0-20AB, U+20AD-20C0, U+2113, U+2C60-2C7F, U+A720-A7FF;
}
/* latin */
@font-face {
  font-family: 'Inter';
  font-style: normal;
  font-weight: 700;
  font-display: block;
  src: url(https://design.penpot.app/internal/gfonts/font/inter/v19/UcCO3FwrK3iLTeHuS_nVMrMxCp50SjIw2boKoduKmMEVuFuYAZ9hiA.woff2) format('woff2');
  unicode-range: U+0000-00FF, U+0131, U+0152-0153, U+02BB-02BC, U+02C6, U+02DA, U+02DC, U+0304, U+0308, U+0329, U+2000-206F, U+20AC, U+2122, U+2191, U+2193, U+2212, U+2215, U+FEFF, U+FFFD;
}
</style><g id="shape-25ef02d5-d97e-8012-8006-7e9418d32f54"><defs><clipPath id="frame-clip-25ef02d5-d97e-8012-8006-7e9418d32f54-render-1" class="frame-clip frame-clip-def"><rect rx="500" ry="500" x="0" y="0" width="1024" height="1024" transform="matrix(1.000000, 0.000000, 0.000000, 1.000000, 0.000000, 0.000000)"/></clipPath></defs><g class="frame-container-wrapper"><g class="frame-container-blur"><g class="frame-container-shadows"><g clip-path="url(#frame-clip-25ef02d5-d97e-8012-8006-7e9418d32f54-render-1)" fill="none"><g class="fills" id="fills-25ef02d5-d97e-8012-8006-7e9418d32f54"><rect rx="500" ry="500" x="0" y="0" width="1024" height="1024" transform="matrix(1.000000, 0.000000, 0.000000, 1.000000, 0.000000, 0.000000)" class="frame-background"/></g><g class="frame-children"><g id="shape-25ef02d5-d97e-8012-8006-7e9418d32f55" xml:space="preserve" rx="0" ry="0" style="fill: rgb(0, 0, 0);"><g id="shape-25ef02d5-d97e-8012-8006-7e9418d32f57" style="display: none;"><g class="fills" id="fills-25ef02d5-d97e-8012-8006-7e9418d32f57"><rect width="1024" height="1024" x="0" transform="matrix(1.000000, 0.000000, 0.000000, 1.000000, 0.000000, 0.000000)" style="fill: none;" ry="0" fill="none" rx="0" y="0"/></g></g><g id="shape-25ef02d5-d97e-8012-8006-7e9418d32f58"><g class="fills" id="fills-25ef02d5-d97e-8012-8006-7e9418d32f58"><path d="M-0.0001220703125,0L1023.9998779296875,0L1023.9998779296875,1024L-0.0001220703125,1024Z" style="fill: rgb(88, 129, 87); fill-opacity: 1;"/></g></g><g id="shape-25ef02d5-d97e-8012-8006-7e9418d32f59"><g class="fills" id="fills-25ef02d5-d97e-8012-8006-7e9418d32f59"><path d="M792.9998779296875,232.699951171875C796.6021728515625,227.94873046875,802.1365966796875,225.05224609375,808.0938720703125,224.80078125C814.0511474609375,224.54931640625,819.8099365234375,226.968994140625,823.7999267578125,231.39990234375C891.9947509765625,307.7724609375,929.6292724609375,406.612060546875,929.4998779296875,509C929.6085205078125,604.79443359375,896.6531982421875,697.6904296875,836.1998291015625,772C832.3148193359375,776.697265625,826.4996337890625,779.3662109375,820.4051513671875,779.24951171875C814.3106689453125,779.13232421875,808.6021728515625,776.24267578125,804.8997802734375,771.39990234375L761.8997802734375,714.80029296875C756.5072021484375,707.7333984375,756.4256591796875,697.95556640625,761.6998291015625,690.80029296875C800.3172607421875,638.05859375,821.0921630859375,574.36767578125,820.9998779296875,509C820.9998779296875,434.800048828125,794.7999267578125,366.699951171875,751.0999755859375,313.39990234375C745.2078857421875,306.24755859375,745.0008544921875,295.984375,750.5999755859375,288.60009765625Z" style="fill: rgb(204, 223, 202);"/></g></g><g id="shape-25ef02d5-d97e-8012-8006-7e9418d35d81"><g class="fills" id="fills-25ef02d5-d97e-8012-8006-7e9418d35d81"><path d="M355.19989013671875,548C346.93133544921875,546.76171875,340.30560302734375,540.51025390625,338.58880615234375,532.327392578125C336.87200927734375,524.14453125,340.42645263671875,515.75732421875,347.49993896484375,511.300048828125L629.4999389648438,333.89990234375C636.5621337890625,329.3837890625,645.6915283203125,329.7509765625,652.3682861328125,334.820068359375C659.0450439453125,339.888916015625,661.8521728515625,348.583984375,659.3997802734375,356.60009765625L562.3998413085938,675.5C559.9818725585938,683.5400390625,552.7999877929688,689.2138671875,544.4188842773438,689.70556640625C536.0375366210938,690.197265625,528.2416381835938,685.40185546875,524.8998413085938,677.7001953125L475.69989013671875,566.2001953125Z" style="fill: rgb(204, 223, 202);"/></g></g><g id="shape-25ef02d5-d97e-8012-8006-7e9418d35d82"><g class="fills" id="fills-25ef02d5-d97e-8012-8006-7e9418d35d82"><path d="M720.7999267578125,844.60009765625C724.3162841796875,849.2177734375,725.6529541015625,855.1357421875,724.4630126953125,860.81689453125C723.2730712890625,866.49755859375,719.6739501953125,871.38134765625,714.5999755859375,874.2001953125C652.6348876953125,908.64501953125,582.8949584960938,926.6826171875,511.99993896484375,926.60009765625C281.42791748046875,926.48974609375,94.55511474609375,739.572265625,94.49993896484375,509C94.60394287109375,364.52685546875,169.35760498046875,230.36474609375,292.15936279296875,154.257568359375C414.96087646484375,78.150390625,568.3722534179688,70.90478515625,697.7999267578125,135.10009765625C703.1307373046875,137.7578125,706.9993896484375,142.6533203125,708.3531494140625,148.4541015625C709.7066650390625,154.255126953125,708.4039306640625,160.357421875,704.7999267578125,165.10009765625L662.3997802734375,220.89990234375C656.7469482421875,228.334228515625,646.7012939453125,230.866455078125,638.1998291015625,227C598.5214233398438,209.15966796875,555.5045776367188,199.95654296875,511.99993896484375,200C341.34393310546875,200,202.99993896484375,338.343994140625,202.99993896484375,509C202.99993896484375,679.60009765625,341.49993896484375,818,511.99993896484375,818C561.2684936523438,818.0947265625,609.8361206054688,806.330078125,653.5999755859375,783.7001953125C662.2166748046875,779.22705078125,672.8013916015625,781.5888671875,678.6998291015625,789.30029296875Z" style="fill: rgb(254, 253, 246);"/></g></g></g><g id="shape-25ef02d5-d97e-8012-8006-7e9418d32f56" style="display: none;"><g class="frame-container-wrapper"><g class="frame-container-blur"><g class="frame-container-shadows"><g fill="none"><g class="fills" id="fills-25ef02d5-d97e-8012-8006-7e9418d32f56"><rect rx="0" ry="0" x="95.5" y="134.5" width="499" height="257" transform="matrix(1.000000, 0.000000, 0.000000, 1.000000, 0.000000, 0.000000)" class="frame-background"/></g><g class="frame-children"><g id="shape-25ef02d5-d97e-8012-8006-7e9418d3a7aa"><g class="fills" id="fills-25ef02d5-d97e-8012-8006-7e9418d3a7aa"><rect rx="50" ry="50" x="155" y="134.5" transform="matrix(1.000000, 0.000000, 0.000000, 1.000000, 0.000000, 0.000000)" width="380" height="239" style="fill: rgb(204, 223, 202); fill-opacity: 1;"/></g></g><g id="shape-25ef02d5-d97e-8012-8006-7e9418d3d646" style="display: none;"><g class="fills" id="fills-25ef02d5-d97e-8012-8006-7e9418d3d646"><path d="M463.74017333984375,254.758544921875C470.21746826171875,254.37158203125,476.25457763671875,258.06005859375,478.87493896484375,264.005859375C481.49505615234375,269.951904296875,480.14569091796875,276.900146484375,475.49163818359375,281.42529296875L289.91009521484375,461.62158203125C285.27435302734375,466.18994140625,278.28314208984375,467.377197265625,272.39764404296875,464.595947265625C266.51263427734375,461.81494140625,262.98236083984375,455.65478515625,263.55462646484375,449.16552734375L285.89739990234375,191.10693359375C286.44012451171875,184.60546875,290.98065185546875,179.1376953125,297.26531982421875,177.4169921875C303.54998779296875,175.696533203125,310.24090576171875,178.089599609375,314.01751708984375,183.40869140625L369.31536865234375,260.2822265625Z" style="fill: rgb(204, 223, 202);"/></g></g><g id="shape-25ef02d5-d97e-8012-8006-7e9418d3d647"><g transform="matrix(1.000000, 0.000000, 0.000000, 1.000000, 0.000000, 0.000000)" class="text-container" x="95.5" y="121" width="499" height="284" rx="0" ry="0"><defs><pattern patternUnits="objectBoundingBox" width="292.51666259765625" height="266.20001220703125" id="fill-0-render-11-0"><g><rect width="292.51666259765625" height="266.20001220703125" style="fill: rgb(87, 129, 87); fill-opacity: 1;"/></g></pattern></defs><g class="fills" id="fills-25ef02d5-d97e-8012-8006-7e9418d3d647"><text x="198.73333740234375" y="386.1000061035156" dominant-baseline="ideographic" textLength="292.51666259765625" lengthAdjust="spacingAndGlyphs" style="text-transform: none; font-family: Inter; letter-spacing: normal; font-style: normal; font-weight: 700; white-space: pre; font-size: 220px; text-decoration: rgb(87, 129, 87); direction: ltr; fill: rgb(87, 129, 87); fill-opacity: 1;">DE</text></g></g></g></g></g></g><g id="strokes-86263a01-d001-8080-8006-7e947a32c1ce-25ef02d5-d97e-8012-8006-7e9418d32f56" class="strokes"><g class="inner-stroke-shape" transform="matrix(1.000000, 0.000000, 0.000000, 1.000000, 0.000000, 0.000000)"><defs><clipPath id="inner-stroke-render-8-25ef02d5-d97e-8012-8006-7e9418d32f56-0"><use href="#stroke-shape-render-8-25ef02d5-d97e-8012-8006-7e9418d32f56-0"/></clipPath><rect width="499" height="257" class="frame-background" x="95.5" id="stroke-shape-render-8-25ef02d5-d97e-8012-8006-7e9418d32f56-0" style="fill: none; stroke-width: 2; stroke: rgb(0, 0, 0); stroke-opacity: 0;" ry="0" rx="0" y="134.5"/></defs><use href="#stroke-shape-render-8-25ef02d5-d97e-8012-8006-7e9418d32f56-0" clip-path="url('#inner-stroke-render-8-25ef02d5-d97e-8012-8006-7e9418d32f56-0')"/></g></g></g></g></g></g></g></g></g></g></g></svg>

<svg xmlns="http://www.w3.org/2000/svg" width="1024" height="1024">
<circle fill="#588157" cx="512" cy="512" r="512"/>
<path fill="#ccdfca" d="M793 232.7a20 20 0 0 1 30.8-1.3A416 416 0 0 1 929.5 509a416 416 0 0 1-93.3 263 20 20 0 0 1-31.3-.6l-43-56.6a20 20 0 0 1-.2-24A307 307 0 0 0 821 509c0-74.2-26.2-142.3-69.9-195.6a20 20 0 0 1-.5-24.8zM355.2 548a20 20 0 0 1-7.7-36.7l282-177.4a20 20 0 0 1 29.9 22.7l-97 318.9a20 20 0 0 1-37.5 2.2l-49.2-111.5Z"/>
<path fill="#fefdf6" d="M720.8 844.6a20 20 0 0 1-6.2 29.6A417.7 417.7 0 0 1 94.5 509a417.7 417.7 0 0 1 603.3-373.9 20 20 0 0 1 7 30l-42.4 55.8a20 20 0 0 1-24.2 6.1 309 309 0 1 0 15.4 556.7 20 20 0 0 1 25.1 5.6z"/>
</svg>
